src/topics/icons/google-icon.svg

<svg height="262" preserveAspectRatio="xMidYMid" viewBox="0 0 256 262" width="256" xmlns="http://www.w3.org/2000/svg"><path d="m255.878 133.451c0-10.734-.871-18.567-2.756-26.69h-122.572v48.448h71.947c-1.45 12.04-9.283 30.172-26.69 42.356l-.244 1.622 38.755 30.023 2.685.268c24.659-22.774 38.875-56.282 38.875-96.027" fill="#4285f4"/><path d="m130.55 261.1c35.248 0 64.839-11.605 86.453-31.622l-41.196-31.913c-11.024 7.688-25.82 13.055-45.257 13.055-34.523 0-63.824-22.773-74.269-54.25l-1.531.13-40.298 31.187-.527 1.465c21.468 42.646 65.565 71.948 116.625 71.948" fill="#34a853"/><path d="m56.281 156.37c-2.756-8.123-4.351-16.827-4.351-25.82 0-8.994 1.595-17.697 4.206-25.82l-.073-1.73-40.803-31.688-1.335.635c-8.848 17.697-13.925 37.57-13.925 58.603s5.077 40.905 13.925 58.602z" fill="#fbbc05"/><path d="m130.55 50.479c24.514 0 41.05 10.589 50.479 19.438l36.844-35.974c-22.628-21.033-52.075-33.943-87.323-33.943-51.06 0-95.157 29.301-116.625 71.947l42.211 32.783c10.59-31.477 39.891-54.251 74.414-54.251" fill="#eb4335"/></svg>

<?xml version="1.0" encoding="UTF-8" standalone="no"?>
<svg width="256px" height="262px" viewBox="0 0 256 262" version="1.1" xmlns="http://www.w3.org/2000/svg" xmlns:xlink="http://www.w3.org/1999/xlink" preserveAspectRatio="xMidYMid">
	<g>
		<path d="M255.878,133.451 C255.878,122.717 255.007,114.884 253.122,106.761 L130.55,106.761 L130.55,155.209 L202.497,155.209 C201.047,167.249 193.214,185.381 175.807,197.565 L175.563,199.187 L214.318,229.21 L217.003,229.478 C241.662,206.704 255.878,173.196 255.878,133.451" fill="#4285F4"></path>
		<path d="M130.55,261.1 C165.798,261.1 195.389,249.495 217.003,229.478 L175.807,197.565 C164.783,205.253 149.987,210.62 130.55,210.62 C96.027,210.62 66.726,187.847 56.281,156.37 L54.75,156.5 L14.452,187.687 L13.925,189.152 C35.393,231.798 79.49,261.1 130.55,261.1" fill="#34A853"></path>
		<path d="M56.281,156.37 C53.525,148.247 51.93,139.543 51.93,130.55 C51.93,121.556 53.525,112.853 56.136,104.73 L56.063,103 L15.26,71.312 L13.925,71.947 C5.077,89.644 0,109.517 0,130.55 C0,151.583 5.077,171.455 13.925,189.152 L56.281,156.37" fill="#FBBC05"></path>
		<path d="M130.55,50.479 C155.064,50.479 171.6,61.068 181.029,69.917 L217.873,33.943 C195.245,12.91 165.798,0 130.55,0 C79.49,0 35.393,29.301 13.925,71.947 L56.136,104.73 C66.726,73.253 96.027,50.479 130.55,50.479" fill="#EB4335"></path>
	</g>
</svg>
